X:1
T:Title
%%score ( 1 2 ) { 3 | 4 }
L:1/8
Q:1/4=78
M:2/4
K:Bb
V:1 treble nm="Grand Piano, Soprano"
V:2 treble 
V:3 bass nm="Choir Pad, Marsala, I. Hartshorn, 1878"
V:4 bass 
V:1
 [DF][Fd]- [Fd]/[Ec]/[DB] | [EG][EG]- [EG]/[DF]/[DF] | [FB][FA] [FB][=Ec] | [=EG][GB] [FA][FA] | %4
w: By~W.~Irving~Hartshorn,~1878 * * * *||||
 F[Fd]- [Fd]/[Ec]/[DB] | [DB][FA]- [FA]/[EG]/[Ge] | [EG]/[EG]/[DF] [DB][CA] | [Ec][Ec] [DB]2 | %8
w: ||||
 z2 z [ce]- | [ce]4 | z2 z [Bd]- | [Bd]4 | [Fd][Fc]- [Fc]/[FA]/[=EG] | [GB][GB] [FA][FA] | %14
w: ||||||
 F[Fd]- [Fd]/[Ec]/[DB]- | [DB]4 | [DB][FA]- [FA]/[EG]/[Ge]- | [Ge]4 | [EG]F [Fd][Gc] | .B2 z2 | %20
w: ||||||
 z4 | z4 |] %22
w: ||
V:2
 x4 | x4 | x4 | x4 | x4 | x4 | x4 | x4 | [Bd][Fc]- [Fc]<.[Bd] | FF FF | [Fc][DB]- [DB]<.[Fc] | %11
 FF FF | x4 | x4 | x4 | x4 | x4 | x4 | x4 | G/-[Gc]/ [Fd]2 [Ec]- | [Ec] [DB]3- | [DB]4 |] %22
V:3
 B,B,- B,/B,/B, | B,B,- B,/B,/B, | DC F,G, | CC CC | A,[K:bass]B,- B,/B,/B, | B,B,- B,/B,/B, | %6
 B,/B,/B, F,F, | F,F, F,2 | z4 | A,A, A,A, | z4 | B,B, B,B, | B,A,- A,/[K:treble]C/C | CC CC | z4 | %15
 B,B, F,F, | z4 | B,B, B,B, | B,B, B,B, | B,B, B,A, | A, F,3- | F,4 |] %22
V:4
 B,,B,,- B,,/B,,/B,, | B,,B,,- B,,/B,,/B,, | B,,F, D,C, | C,F, F,F, | F,B,,- B,,/B,,/B,, | %5
 B,,E,- E,/E,/E, | E,/E,/F, z2 | z B,, B,,2 | z4 | F,F, F,F, | z4 | B,,B,, B,,B,, | %12
 B,,C,- C,/C,/C, | C,F, F,F, | z4 | B,,B,, B,,B,, | z4 | E,E, E,E, | E,D, B,,E, | E,F, F,F, | %20
 F, B,,3- | B,,4 |] %22

